src/assets/obucheniye/icons/comb.svg

<svg fill="none" height="70" viewBox="0 0 71 70" width="71" xmlns="http://www.w3.org/2000/svg"><g fill="#942fe5"><path d="m35.0179 33.6877-3.6924-3.6923c-1.1559-1.1559-2.6927-1.7924-4.3274-1.7924-1.6348 0-3.1716.6366-4.3274 1.7925-.9058.9059-1.4966 2.0525-1.7084 3.3159l-.5075 3.0289c-.8745 5.218-3.314 9.9537-7.0552 13.695-2.4357 2.4358-6.39935 2.4358-8.83549-.0001-1.1802-1.1799-1.82991-2.7487-1.82991-4.4175 0-1.6689.64984-3.2377 1.82977-4.4177l14.08043-14.0805c.5339-.5339.5339-1.3996 0-1.9335-.5339-.5338-1.3997-.5338-1.9334 0l-14.0803 14.0806c-1.696468 1.6964-2.6307 3.952-2.6307 6.3512s.934232 4.6547 2.6307 6.3512c1.75115 1.751 4.05098 2.6263 6.35108 2.6263 2.29992 0 4.60022-.8755 6.35122-2.6264 4.146-4.146 6.8496-9.3939 7.8185-15.1767l.5075-3.0289c.1172-.6989.444-1.3333.9452-1.8344.6395-.6396 1.4898-.9917 2.3939-.9917.9043 0 1.7546.3521 2.3938.9917l3.6923 3.6924c.5339.5337 1.3997.5337 1.9336 0 .534-.5338.534-1.3995.0001-1.9336z"/><path d="m23.0663 20.7649c-.2543-.2543-.6071-.4006-.9666-.4006-.3596 0-.7124.1461-.9667.4006-.2543.2544-.4006.6069-.4006.9666 0 .3609.1463.7123.4006.9665.2543.2557.6071.4007.9667.4007.3595 0 .7123-.145.9666-.4007.2543-.2542.4006-.6057.4006-.9665 0-.3597-.1463-.7123-.4006-.9666z"/><path d="m58.981 9.72446-7.1229-7.12261c-1.6779-1.677872-3.9087-2.60185-6.2815-2.60185-2.3729 0-4.6038.924114-6.2815 2.60185l-14.381 14.38095c-.5339.5339-.5339 1.3997 0 1.9336.267.2667.6169.4003.9668.4003.3498 0 .6999-.1336.9667-.4005l14.381-14.38067c1.1615-1.16147 2.7055-1.8012 4.3481-1.8012 1.6425 0 3.1866.63973 4.3481 1.8012l7.1226 7.12257c.5339.5338 1.3997.5338 1.9336 0 .5339-.5339.5339-1.3996 0-1.93364z"/><path d="m12.1872 42.413c-1.7668-1.7668-4.6418-1.7668-6.40881 0-1.76702 1.7671-1.76702 4.6422 0 6.4092.8835.8835 2.04388 1.3252 3.20439 1.3252 1.16052 0 2.32102-.4417 3.20442-1.3252 1.7668-1.7671 1.7668-4.6421 0-6.4092zm-1.9333 4.4757c-.70085.701-1.84113.7008-2.54197 0s-.70084-1.8413 0-2.5421c.35042-.3504.81077-.5257 1.27112-.5257s.92069.1753 1.27095.5257c.7007.7008.7007 1.8414-.0001 2.5421z"/><path d="m54.9874 13.7182-7.6457-7.64581c-.534-.53363-1.3996-.53376-1.9334 0-.5339.53391-.534 1.39964 0 1.93368l7.6457 7.64583c.2669.2669.6168.4005.9668.4005.3499 0 .6999-.1336.9668-.4005.5337-.5339.5339-1.3996-.0002-1.9337z"/><path d="m50.9935 17.7122-7.6459-7.6459c-.5339-.53373-1.3996-.53373-1.9335 0-.5339.5339-.5339 1.3997 0 1.9336l7.6459 7.6458c.267.2669.617.4005.9669.4005.3498 0 .6999-.1336.9667-.4005.5338-.5337.5338-1.3995-.0001-1.9335z"/><path d="m46.9991 21.7058-7.6457-7.6458c-.5339-.5338-1.3996-.5338-1.9334 0-.5339.5339-.534 1.3996 0 1.9335l7.6457 7.6459c.2671.2669.6169.4005.9668.4005s.6999-.1336.9668-.4005c.5337-.5338.5339-1.3995-.0002-1.9336z"/><path d="m43.0051 25.6999-7.6459-7.6458c-.5339-.5337-1.3996-.5337-1.9334 0-.5339.5339-.5339 1.3997 0 1.9336l7.6459 7.6457c.267.2669.6169.4005.9667.4005.3499 0 .6999-.1336.9668-.4005.5338-.5338.5338-1.3995-.0001-1.9335z"/><path d="m39.0128 29.6938-7.6457-7.6458c-.5339-.5337-1.3996-.5338-1.9334 0-.5339.5339-.5341 1.3996 0 1.9337l7.6457 7.6458c.267.2669.6169.4005.9668.4005.3498 0 .6999-.1336.9667-.4005.5338-.5339.5339-1.3996-.0001-1.9337z"/><path d="m62.5044 42.84c1.2906-1.464 1.9971-3.3232 1.9971-5.2921 0-2.1413-.8339-4.1546-2.348-5.6687-3.1255-3.1254-8.2116-3.1254-11.3371 0-1.5142 1.5142-2.3479 3.5274-2.3479 5.6687 0 1.9605.7008 3.8124 1.9809 5.2735h-7.1762c-.7551 0-1.3672.6123-1.3672 1.3673s.6121 1.3672 1.3672 1.3672h12.6898c-.9541 1.0864-1.619 2.4312-1.8751 3.9152h-31.7621c.6041-2.2519 2.663-3.9152 5.103-3.9152h5.3856c.7552 0 1.3673-.6122 1.3673-1.3672s-.6121-1.3673-1.3673-1.3673h-5.3856c-4.4205 0-8.0167 3.5964-8.0167 8.0168 0 .755.6121 1.3673 1.3672 1.3673h19.1148l-13.5129 13.5129c-.5339.5339-.5339 1.3996 0 1.9335 1.5142 1.5142 3.5273 2.348 5.6685 2.348 2.1413 0 4.1545-.8339 5.6685-2.348l15.4467-15.4464h.923c.6511 3.7711 3.9435 6.6494 7.8977 6.6494 4.4204 0 8.0167-3.5963 8.0167-8.0167 0-4.2459-3.3186-7.7296-7.4979-7.9982zm-26.7196 22.8783c-.9977.9978-2.3242 1.5471-3.7351 1.5471-.9429 0-1.8482-.2454-2.6427-.706l14.3542-14.3541h5.5368zm20.4042-22.8969c-1.2997-.0713-2.5115-.611-3.439-1.5385-.9977-.9977-1.5472-2.324-1.5472-3.735s.5495-2.7375 1.5472-3.7352c2.0594-2.0593 5.4108-2.0594 7.4703 0 .9978.9977 1.5471 2.3242 1.5471 3.7352s-.5495 2.7373-1.5471 3.735c-.9276.9277-2.1394 1.4672-3.4389 1.5385zm5.7965 13.299c-2.9126 0-5.2823-2.3696-5.2823-5.2823 0-2.9128 2.3695-5.2825 5.2823-5.2825 2.9126 0 5.2823 2.3696 5.2823 5.2825.0001 2.9126-2.3695 5.2823-5.2823 5.2823z"/><path d="m39.1835 43.2224c-.2543-.2542-.6071-.4006-.9667-.4006-.3595 0-.7123.1463-.9666.4006s-.4006.607-.4006.9666.1463.7123.4006.9666c.2543.2542.6072.4006.9666.4006.3596 0 .7124-.1462.9667-.4006.2543-.2543.4006-.607.4006-.9666s-.1463-.7123-.4006-.9666z"/><path d="m51.9804 46.7537c-.2543-.2543-.6071-.3992-.9667-.3992-.3609 0-.7123.1449-.9666.3992s-.4006.6071-.4006.968c0 .3596.1463.711.4006.9667.2543.2541.6057.4006.9666.4006.3596 0 .7122-.1465.9667-.4006.2543-.2557.4006-.6071.4006-.9667 0-.3609-.1463-.7137-.4006-.968z"/></g></svg>

<svg width="71" height="70" viewBox="0 0 71 70" fill="none" xmlns="http://www.w3.org/2000/svg">
<path d="M35.0179 33.6877L31.3255 29.9954C30.1696 28.8395 28.6328 28.203 26.9981 28.203C25.3633 28.203 23.8265 28.8396 22.6707 29.9955C21.7649 30.9014 21.1741 32.048 20.9623 33.3114L20.4548 36.3403C19.5803 41.5583 17.1408 46.294 13.3996 50.0353C10.9639 52.4711 7.00025 52.4711 4.56411 50.0352C3.38391 48.8553 2.7342 47.2865 2.7342 45.6177C2.7342 43.9488 3.38404 42.38 4.56397 41.2L18.6444 27.1195C19.1783 26.5856 19.1783 25.7199 18.6444 25.186C18.1105 24.6522 17.2447 24.6522 16.711 25.186L2.6307 39.2666C0.934232 40.963 0 43.2186 0 45.6178C0 48.017 0.934232 50.2725 2.6307 51.969C4.38185 53.72 6.68168 54.5953 8.98178 54.5953C11.2817 54.5953 13.582 53.7198 15.333 51.9689C19.479 47.8229 22.1826 42.575 23.1515 36.7922L23.659 33.7633C23.7762 33.0644 24.103 32.43 24.6042 31.9289C25.2437 31.2893 26.094 30.9372 26.9981 30.9372C27.9024 30.9372 28.7527 31.2893 29.3919 31.9289L33.0842 35.6213C33.6181 36.155 34.4839 36.155 35.0178 35.6213C35.5518 35.0875 35.5518 34.2218 35.0179 33.6877Z" fill="#942FE5"/>
<path d="M23.0663 20.7649C22.812 20.5106 22.4592 20.3643 22.0997 20.3643C21.7401 20.3643 21.3873 20.5104 21.133 20.7649C20.8787 21.0193 20.7324 21.3718 20.7324 21.7315C20.7324 22.0924 20.8787 22.4438 21.133 22.698C21.3873 22.9537 21.7401 23.0987 22.0997 23.0987C22.4592 23.0987 22.812 22.9537 23.0663 22.698C23.3206 22.4438 23.4669 22.0923 23.4669 21.7315C23.4669 21.3718 23.3206 21.0192 23.0663 20.7649Z" fill="#942FE5"/>
<path d="M58.981 9.72446L51.8581 2.60185C50.1802 0.923978 47.9494 0 45.5766 0C43.2037 0 40.9728 0.924114 39.2951 2.60185L24.9141 16.9828C24.3802 17.5167 24.3802 18.3825 24.9141 18.9164C25.1811 19.1831 25.531 19.3167 25.8809 19.3167C26.2307 19.3167 26.5808 19.1831 26.8476 18.9162L41.2286 4.53553C42.3901 3.37406 43.9341 2.73433 45.5767 2.73433C47.2192 2.73433 48.7633 3.37406 49.9248 4.53553L57.0474 11.6581C57.5813 12.1919 58.4471 12.1919 58.981 11.6581C59.5149 11.1242 59.5149 10.2585 58.981 9.72446Z" fill="#942FE5"/>
<path d="M12.1872 42.413C10.4204 40.6462 7.5454 40.6462 5.77839 42.413C4.01137 44.1801 4.01137 47.0552 5.77839 48.8222C6.66189 49.7057 7.82227 50.1474 8.98278 50.1474C10.1433 50.1474 11.3038 49.7057 12.1872 48.8222C13.954 47.0551 13.954 44.1801 12.1872 42.413ZM10.2539 46.8887C9.55305 47.5897 8.41277 47.5895 7.71193 46.8887C7.01109 46.1879 7.01109 45.0474 7.71193 44.3466C8.06235 43.9962 8.5227 43.8209 8.98305 43.8209C9.4434 43.8209 9.90374 43.9962 10.254 44.3466C10.9547 45.0474 10.9547 46.188 10.2539 46.8887Z" fill="#942FE5"/>
<path d="M54.9874 13.7182L47.3417 6.07239C46.8077 5.53876 45.9421 5.53863 45.4083 6.07239C44.8744 6.6063 44.8743 7.47203 45.4083 8.00607L53.054 15.6519C53.3209 15.9188 53.6708 16.0524 54.0208 16.0524C54.3707 16.0524 54.7207 15.9188 54.9876 15.6519C55.5213 15.118 55.5215 14.2523 54.9874 13.7182Z" fill="#942FE5"/>
<path d="M50.9935 17.7122L43.3476 10.0663C42.8137 9.53257 41.948 9.53257 41.4141 10.0663C40.8802 10.6002 40.8802 11.466 41.4141 11.9999L49.06 19.6457C49.327 19.9126 49.677 20.0462 50.0269 20.0462C50.3767 20.0462 50.7268 19.9126 50.9936 19.6457C51.5274 19.112 51.5274 18.2462 50.9935 17.7122Z" fill="#942FE5"/>
<path d="M46.9991 21.7058L39.3534 14.06C38.8195 13.5262 37.9538 13.5262 37.42 14.06C36.8861 14.5939 36.886 15.4596 37.42 15.9935L45.0657 23.6394C45.3328 23.9063 45.6826 24.0399 46.0325 24.0399C46.3824 24.0399 46.7324 23.9063 46.9993 23.6394C47.533 23.1056 47.5332 22.2399 46.9991 21.7058Z" fill="#942FE5"/>
<path d="M43.0051 25.6999L35.3592 18.0541C34.8253 17.5204 33.9596 17.5204 33.4258 18.0541C32.8919 18.588 32.8919 19.4538 33.4258 19.9877L41.0717 27.6334C41.3387 27.9003 41.6886 28.0339 42.0384 28.0339C42.3883 28.0339 42.7383 27.9003 43.0052 27.6334C43.539 27.0996 43.539 26.2339 43.0051 25.6999Z" fill="#942FE5"/>
<path d="M39.0128 29.6938L31.3671 22.048C30.8332 21.5143 29.9675 21.5142 29.4337 22.048C28.8998 22.5819 28.8996 23.4476 29.4337 23.9817L37.0794 31.6275C37.3464 31.8944 37.6963 32.028 38.0462 32.028C38.396 32.028 38.7461 31.8944 39.0129 31.6275C39.5467 31.0936 39.5468 30.2279 39.0128 29.6938Z" fill="#942FE5"/>
<path d="M62.5044 42.84C63.795 41.376 64.5015 39.5168 64.5015 37.5479C64.5015 35.4066 63.6676 33.3933 62.1535 31.8792C59.028 28.7538 53.9419 28.7538 50.8164 31.8792C49.3022 33.3934 48.4685 35.4066 48.4685 37.5479C48.4685 39.5084 49.1693 41.3603 50.4494 42.8214H43.2732C42.5181 42.8214 41.906 43.4337 41.906 44.1887C41.906 44.9437 42.5181 45.5559 43.2732 45.5559H55.963C55.0089 46.6423 54.344 47.9871 54.0879 49.4711H22.3258C22.9299 47.2192 24.9888 45.5559 27.4288 45.5559H32.8144C33.5696 45.5559 34.1817 44.9437 34.1817 44.1887C34.1817 43.4337 33.5696 42.8214 32.8144 42.8214H27.4288C23.0083 42.8214 19.4121 46.4178 19.4121 50.8382C19.4121 51.5932 20.0242 52.2055 20.7793 52.2055H39.8941L26.3812 65.7184C25.8473 66.2523 25.8473 67.118 26.3812 67.6519C27.8954 69.1661 29.9085 69.9999 32.0497 69.9999C34.191 69.9999 36.2042 69.166 37.7182 67.6519L53.1649 52.2055H54.0879C54.739 55.9766 58.0314 58.8549 61.9856 58.8549C66.406 58.8549 70.0023 55.2586 70.0023 50.8382C70.0023 46.5923 66.6837 43.1086 62.5044 42.84ZM35.7848 65.7183C34.7871 66.7161 33.4606 67.2654 32.0497 67.2654C31.1068 67.2654 30.2015 67.02 29.407 66.5594L43.7612 52.2053H49.298L35.7848 65.7183ZM56.189 42.8214C54.8893 42.7501 53.6775 42.2104 52.75 41.2829C51.7523 40.2852 51.2028 38.9589 51.2028 37.5479C51.2028 36.1369 51.7523 34.8104 52.75 33.8127C54.8094 31.7534 58.1608 31.7533 60.2203 33.8127C61.2181 34.8104 61.7674 36.1369 61.7674 37.5479C61.7674 38.9589 61.2179 40.2852 60.2203 41.2829C59.2927 42.2106 58.0809 42.7501 56.7814 42.8214H56.189ZM61.9855 56.1204C59.0729 56.1204 56.7032 53.7508 56.7032 50.8381C56.7032 47.9253 59.0727 45.5556 61.9855 45.5556C64.8981 45.5556 67.2678 47.9252 67.2678 50.8381C67.2679 53.7507 64.8983 56.1204 61.9855 56.1204Z" fill="#942FE5"/>
<path d="M39.1835 43.2224C38.9292 42.9682 38.5764 42.8218 38.2168 42.8218C37.8573 42.8218 37.5045 42.9681 37.2502 43.2224C36.9959 43.4767 36.8496 43.8294 36.8496 44.189C36.8496 44.5486 36.9959 44.9013 37.2502 45.1556C37.5045 45.4098 37.8574 45.5562 38.2168 45.5562C38.5764 45.5562 38.9292 45.41 39.1835 45.1556C39.4378 44.9013 39.5841 44.5486 39.5841 44.189C39.5841 43.8294 39.4378 43.4767 39.1835 43.2224Z" fill="#942FE5"/>
<path d="M51.9804 46.7537C51.7261 46.4994 51.3733 46.3545 51.0137 46.3545C50.6528 46.3545 50.3014 46.4994 50.0471 46.7537C49.7928 47.008 49.6465 47.3608 49.6465 47.7217C49.6465 48.0813 49.7928 48.4327 50.0471 48.6884C50.3014 48.9425 50.6528 49.089 51.0137 49.089C51.3733 49.089 51.7259 48.9425 51.9804 48.6884C52.2347 48.4327 52.381 48.0813 52.381 47.7217C52.381 47.3608 52.2347 47.008 51.9804 46.7537Z" fill="#942FE5"/>
</svg>
